layouts/icon-pack/spell_ward.svg

<?xml version="1.0" encoding="UTF-8"?>
<svg width="1200pt" height="1200pt" version="1.1" viewBox="0 0 1200 1200" xmlns="http://www.w3.org/2000/svg">
 <g fill="#fff">
  <path d="m1139.6 222.66c-0.5-1.7812-1.8203-3.2148-3.5586-3.8555-1.7344-0.64062-3.6719-0.41016-5.207 0.62109l-32.578 21.984c-3.2656 2.2578-5.832 5.3906-7.4062 9.0352-1.5781 3.6484-2.0938 7.6641-1.5 11.59 0.44531 3.3242 0.64062 6.6758 0.58594 10.031-1.1484 65.625-6.4922 231.33-31.031 354.26-3.4688 17.535-11.359 33.898-22.922 47.531-37.617 43.344-82.336 79.977-132.23 108.33-2.6875 1.4648-3.7852 4.7578-2.5156 7.543 1.2695 2.7891 4.4727 4.1172 7.3438 3.0508 76.734-28.57 142.34-74.039 172.64-96.938 11.484-8.7266 19.023-21.66 20.953-35.953 25.5-187.69 35.344-347.6 38.859-422.7 0.26172-4.8867-0.21875-9.7891-1.4297-14.531z"/>
  <path d="m1069.7 208.9 25.992-17.484c1.9766-1.3242 2.9531-3.7188 2.4609-6.0469-0.48828-2.332-2.3438-4.1289-4.6875-4.5469h-0.14062c-128.06-17.93-205.88-90.867-232.03-119.39-3.1328-3.4609-7.1211-6.0352-11.566-7.4609-4.4414-1.4297-9.1836-1.6602-13.746-0.67188l-7.3359 1.6172c-3.6562 0.85938-6.6641 3.4453-8.0625 6.9297-1.3984 3.4844-1.0156 7.4297 1.0312 10.578 0.58594 0.91406 1.125 1.875 1.6406 2.8594 21.492 40.336 76.43 110.16 202.92 124.55 9.6211 1.0859 18.867 4.3359 27.047 9.5156 2.4922 1.5391 5.3789 2.3164 8.3047 2.2383s5.7695-1.0117 8.1719-2.6836z"/>
  <path d="m868.57 741.12c1.2305 3.4766 3.9531 6.2188 7.418 7.4766 3.4688 1.2578 7.3164 0.89453 10.488-0.98438 42.867-25.605 81.379-57.879 114.09-95.602 7.8203-9.2695 13.152-20.375 15.492-32.273 23.953-120.05 29.203-282.61 30.469-348.26 0.16016-7.7148-2.5547-15.211-7.6133-21.039-5.0586-5.8242-12.102-9.5625-19.762-10.484-145.03-16.406-206.93-101.53-228.49-142.05-2.2812-4.2578-6.5312-7.0938-11.34-7.5664-4.8047-0.46875-9.5273 1.4883-12.59 5.2227-52.359 63.023-127.22 82.383-168.23 88.336-8.3906 1.2812-16.043 5.5391-21.559 11.992-5.5156 6.4531-8.5312 14.676-8.4883 23.164 0.16406 97.102 10.617 196.2 20.25 267.19 0.64844 4.8008 4.0508 8.7734 8.6953 10.148 10.797 3.2656 21.32 6.7656 31.57 10.5 3.3086 1.2383 7.0234 0.62891 9.7656-1.5977 2.7422-2.2266 4.1016-5.7383 3.5703-9.2305-9.3008-60.262-13.84-121.16-13.57-182.13 0.054687-12.758 4.1445-25.168 11.684-35.457 7.543-10.289 18.145-17.93 30.293-21.824 26.508-8.5078 64.828-25.078 96.797-55.711 3.3164-3.1836 7.8125-4.8398 12.402-4.5742s8.8594 2.4336 11.785 5.9805c0.46875 0.53906 46.875 55.547 138.09 88.758 11.398 4.2695 21.258 11.859 28.305 21.785 7.0469 9.9258 10.961 21.734 11.234 33.902 1.0781 45.516 1.5703 133.59-7.2891 212.02-2.9258 26.039-15.461 50.051-35.156 67.336-22.609 19.879-46.719 37.98-72.117 54.141-5.8203 3.6875-7.8984 11.188-4.8047 17.344 7.0508 14.121 13.266 28.648 18.609 43.5z"/>
  <path d="m921.09 550.05c8.1328-71.883 7.6641-153.05 6.6562-195.02-0.085938-5.0977-1.6953-10.051-4.6172-14.227-2.9258-4.1758-7.0312-7.3828-11.789-9.2109-45.16-16.168-86.844-40.762-122.84-72.469-2.5977-2.3164-5.9219-3.6602-9.4023-3.8008-3.4766-0.14062-6.8984 0.92969-9.6758 3.0273-24.68 18.102-52.164 32.039-81.352 41.25-5.1289 1.6445-9.6094 4.8633-12.797 9.2031-3.1914 4.3398-4.9297 9.5742-4.9688 14.961-0.25 64.145 5.3047 128.18 16.594 191.32 1.1953 6.9727 5.5117 13.016 11.719 16.406 37.527 19.965 71.109 46.586 99.117 78.562 2.3438 2.5312 7.9688 8.9062 15.352 18.75 3.6055 4.8398 8.9414 8.0977 14.891 9.1016 5.9531 1.0078 12.059-0.32422 17.055-3.7109 18.73-12.57 36.629-26.34 53.578-41.227 12.566-11.016 20.578-26.312 22.477-42.914z"/>
  <path d="m358.41 1147.3h346.36c20.316-0.007813 39.371-9.8594 51.117-26.438 194.41-274.1 6.1641-470.18 6.1641-470.18-136.5-158.98-414.7-134.77-414.7-134.77v-81.516c-0.003906-7.5312-3.7695-14.566-10.035-18.746-6.2656-4.1797-14.203-4.957-21.16-2.0664-132.19 54.586-215.93 153.16-252.21 203.67-4.7461 6.6328-5.7695 15.234-2.7148 22.797 3.0547 7.5625 9.7617 13.039 17.785 14.516 100.03 18.914 195.87 62.859 244.29 87.469 6.9805 3.5469 15.301 3.2109 21.973-0.88672s10.734-11.371 10.723-19.199v-88.547c164.25 7.7812 214.24 83.883 226.55 148.99 9.375 49.359-2.5781 100.2-30.469 142.03-55.547 83.602-142.57 146.06-204.68 183.28-18.469 11.109-10.617 39.586 11.016 39.586z"/>
  <path d="m390.28 253.12c-28.125 17.836-11.461 44.531-11.461 44.531 16.969 33.164 58.594 65.414 89.062 85.664 3.9648 2.6523 9.2109 2.3555 12.852-0.73047 3.6406-3.0859 4.7969-8.2109 2.8281-12.559-15.516-34.477-31.781-80.016-31.781-80.016-7.4766-20.484-33.492-54.773-61.5-36.891z"/>
  <path d="m529.1 138.94c0 16.18-13.117 29.297-29.297 29.297-16.18 0-29.297-13.117-29.297-29.297s13.117-29.297 29.297-29.297c16.18 0 29.297 13.117 29.297 29.297"/>
  <path d="m1011.9 814.31c-5.3008-1.3125-10.883 0.51953-14.379 4.7148-3.4922 4.1992-4.2812 10.023-2.0273 14.996 9.0938 19.852 25.781 47.859 53.555 69 7.8281 6.0234 17.949 8.1992 27.562 5.9258 9.6094-2.2734 17.684-8.7539 21.984-17.645 0.44531-0.96094 0.86719-1.9922 1.2656-3.0469 2.2344-6.1719 2.5352-12.883 0.85937-19.23-1.6758-6.3477-5.2461-12.031-10.234-16.301-13.453-11.906-38.484-28.711-78.586-38.414z"/>
  <path d="m841.41 1147.3h67.078c5.8125 0 11.441-2.043 15.898-5.7773 4.457-3.7305 7.457-8.9141 8.4766-14.637 7.875-44.531 22.617-154.12-1.125-252.73-3.9844-16.547-28.406-13.641-28.336 3.375 0.35156 68.484-12.914 163.38-72.984 248.84-2.8281 4.082-3.1523 9.3984-0.84375 13.793 2.3086 4.3984 6.8711 7.1484 11.836 7.1367z"/>
  <path d="m431.25 963.66c12.82-13.664-4.9688-34.078-20.32-23.297-133.59 93.984-275.32 158.91-346.15 188.6-4.1914 1.7656-6.5586 6.2422-5.6602 10.703 0.89844 4.457 4.8125 7.668 9.3633 7.6719h87.773c9.1094-0.019532 18.098-2.1211 26.273-6.1406 109.9-54 191.09-116.06 248.72-177.54z"/>
  <path d="m486.07 897.98c5.8203 3.6445 13.438 2.4102 17.812-2.8828 7.4609-8.9102 14.082-18.488 19.781-28.617 2.0117-3.9648 0.96484-8.793-2.5078-11.57-3.4727-2.7734-8.4141-2.7266-11.836 0.10938-7.2891 6.7031-15.398 13.758-23.883 20.414-3.5195 2.6797-5.5547 6.8789-5.4766 11.305 0.078124 4.4258 2.2617 8.5469 5.875 11.102z"/>
 </g>
</svg>

<?xml version="1.0" encoding="UTF-8" standalone="no"?>
<!DOCTYPE svg PUBLIC "-//W3C//DTD SVG 1.1//EN" "http://www.w3.org/Graphics/SVG/1.1/DTD/svg11.dtd">
<svg width="100%" height="100%" viewBox="0 0 507 512" version="1.1" xmlns="http://www.w3.org/2000/svg" xmlns:xlink="http://www.w3.org/1999/xlink" xml:space="preserve" xmlns:serif="http://www.serif.com/" style="fill-rule:evenodd;clip-rule:evenodd;stroke-linejoin:round;stroke-miterlimit:2;">
    <g transform="matrix(1,0,0,1,-58.9305,-52.697)">
        <g transform="matrix(0.467733,0,0,0.467733,31.3667,28.0489)">
            <path d="M1139.6,222.66C1139.1,220.879 1137.78,219.445 1136.04,218.805C1134.31,218.164 1132.37,218.394 1130.83,219.426L1098.26,241.41C1094.99,243.667 1092.42,246.8 1090.85,250.445C1089.27,254.093 1088.76,258.109 1089.35,262.035C1089.8,265.359 1089.99,268.711 1089.94,272.066C1088.79,337.691 1083.44,503.396 1058.9,626.326C1055.44,643.861 1047.55,660.224 1035.98,673.857C998.366,717.201 953.647,753.834 903.753,782.187C901.066,783.652 899.968,786.945 901.238,789.73C902.507,792.519 905.71,793.847 908.581,792.781C985.315,764.211 1050.92,718.742 1081.22,695.843C1092.7,687.116 1100.24,674.183 1102.17,659.89C1127.67,472.2 1137.52,312.29 1141.03,237.19C1141.3,232.303 1140.82,227.4 1139.6,222.659L1139.6,222.66Z" style="fill:white;fill-rule:nonzero;"/>
            <path d="M1069.7,208.9L1095.69,191.416C1097.67,190.092 1098.64,187.697 1098.15,185.369C1097.66,183.037 1095.81,181.24 1093.46,180.822L1093.33,180.822C965.265,162.892 887.445,89.955 861.295,61.432C858.162,57.971 854.174,55.397 849.729,53.971C845.287,52.542 840.545,52.311 835.983,53.299L828.647,54.917C824.991,55.776 821.983,58.362 820.584,61.846C819.186,65.331 819.569,69.276 821.616,72.424C822.202,73.338 822.741,74.299 823.256,75.284C844.748,115.62 899.686,185.444 1026.18,199.834C1035.8,200.92 1045.04,204.17 1053.22,209.349C1055.71,210.888 1058.6,211.666 1061.53,211.588C1064.45,211.51 1067.3,210.576 1069.7,208.904L1069.7,208.9Z" style="fill:white;fill-rule:nonzero;"/>
            <path d="M868.57,741.12C869.801,744.597 872.523,747.339 875.988,748.597C879.457,749.854 883.304,749.491 886.476,747.612C929.343,722.007 967.855,689.733 1000.57,652.01C1008.39,642.741 1013.72,631.635 1016.06,619.737C1040.01,499.687 1045.26,337.127 1046.53,271.477C1046.69,263.762 1043.97,256.266 1038.91,250.438C1033.86,244.614 1026.81,240.876 1019.15,239.954C874.122,223.548 812.222,138.424 790.662,97.904C788.381,93.646 784.131,90.81 779.322,90.338C774.517,89.869 769.794,91.826 766.732,95.561C714.373,158.584 639.512,177.944 598.502,183.897C590.111,185.178 582.459,189.436 576.943,195.889C571.427,202.342 568.412,210.565 568.454,219.053C568.618,316.155 579.071,415.253 588.704,486.243C589.353,491.043 592.755,495.016 597.4,496.391C608.197,499.656 618.72,503.156 628.97,506.891C632.278,508.129 635.993,507.519 638.735,505.293C641.478,503.066 642.837,499.555 642.306,496.062C633.005,435.8 628.466,374.902 628.736,313.932C628.79,301.174 632.88,288.764 640.42,278.475C647.963,268.186 658.565,260.545 670.713,256.651C697.221,248.144 735.541,231.573 767.51,200.94C770.826,197.757 775.322,196.101 779.912,196.366C784.501,196.632 788.771,198.8 791.697,202.347C792.165,202.886 838.572,257.894 929.787,291.105C941.185,295.374 951.045,302.964 958.092,312.89C965.139,322.815 969.053,334.624 969.326,346.792C970.404,392.308 970.896,480.382 962.037,558.812C959.111,584.851 946.576,608.863 926.881,626.148C904.272,646.027 880.162,664.128 854.764,680.289C848.943,683.976 846.865,691.477 849.959,697.633C857.01,711.754 863.225,726.281 868.568,741.133L868.57,741.12Z" style="fill:white;fill-rule:nonzero;"/>
            <path d="M921.09,550.05C929.223,478.167 928.754,397 927.746,355.03C927.66,349.932 926.051,344.979 923.129,340.803C920.203,336.627 916.098,333.42 911.34,331.592C866.18,315.424 824.496,290.83 788.5,259.123C785.902,256.807 782.578,255.463 779.098,255.322C775.621,255.182 772.199,256.252 769.422,258.35C744.742,276.452 717.258,290.389 688.07,299.6C682.941,301.244 678.461,304.463 675.273,308.803C672.082,313.143 670.343,318.377 670.304,323.764C670.054,387.909 675.609,451.944 686.898,515.084C688.093,522.056 692.41,528.1 698.617,531.49C736.144,551.455 769.726,578.076 797.734,610.052C800.078,612.583 805.703,618.958 813.086,628.802C816.692,633.641 822.028,636.899 827.977,637.903C833.93,638.911 840.036,637.579 845.032,634.192C863.762,621.622 881.661,607.852 898.61,592.965C911.176,581.949 919.188,566.653 921.087,550.051L921.09,550.05Z" style="fill:white;fill-rule:nonzero;"/>
            <path d="M358.41,1147.3L704.77,1147.3C725.086,1147.29 744.141,1137.44 755.887,1120.86C950.297,846.762 762.051,650.682 762.051,650.682C625.551,491.702 347.351,515.912 347.351,515.912L347.351,434.396C347.347,426.865 343.582,419.83 337.316,415.65C331.05,411.47 323.113,410.693 316.156,413.584C183.966,468.17 100.226,566.744 63.946,617.254C59.2,623.886 58.177,632.488 61.231,640.051C64.286,647.613 70.993,653.09 79.016,654.567C179.046,673.481 274.886,717.426 323.306,742.036C330.287,745.582 338.607,745.246 345.279,741.149C351.951,737.051 356.013,729.778 356.002,721.95L356.002,633.403C520.252,641.184 570.242,717.286 582.552,782.393C591.927,831.752 579.974,882.593 552.083,924.423C496.536,1008.02 409.513,1070.48 347.403,1107.7C328.934,1118.81 336.786,1147.29 358.419,1147.29L358.41,1147.3Z" style="fill:white;fill-rule:nonzero;"/>
            <path d="M390.28,253.12C362.155,270.956 378.819,297.651 378.819,297.651C395.788,330.815 437.413,363.065 467.881,383.315C471.846,385.967 477.092,385.671 480.733,382.585C484.374,379.499 485.53,374.374 483.561,370.026C468.045,335.549 451.78,290.01 451.78,290.01C444.303,269.526 418.288,235.237 390.28,253.119L390.28,253.12Z" style="fill:white;fill-rule:nonzero;"/>
            <path d="M529.1,138.94C529.1,155.12 515.983,168.237 499.803,168.237C483.623,168.237 470.506,155.12 470.506,138.94C470.506,122.76 483.623,109.643 499.803,109.643C515.983,109.643 529.1,122.76 529.1,138.94" style="fill:white;fill-rule:nonzero;"/>
            <path d="M1011.9,814.31C1006.6,812.997 1001.02,814.83 997.521,819.025C994.029,823.224 993.24,829.048 995.494,834.021C1004.59,853.873 1021.27,881.88 1049.05,903.021C1056.88,909.044 1067,911.22 1076.61,908.947C1086.22,906.673 1094.3,900.193 1098.6,891.302C1099.04,890.341 1099.46,889.309 1099.86,888.255C1102.1,882.083 1102.39,875.372 1100.72,869.025C1099.04,862.677 1095.47,856.994 1090.49,852.724C1077.03,840.818 1052,824.013 1011.9,814.31L1011.9,814.31Z" style="fill:white;fill-rule:nonzero;"/>
            <path d="M841.41,1147.3L908.488,1147.3C914.3,1147.3 919.929,1145.26 924.386,1141.52C928.843,1137.79 931.843,1132.61 932.863,1126.89C940.738,1082.36 955.48,972.766 931.738,874.156C927.753,857.609 903.332,860.515 903.402,877.531C903.753,946.015 890.488,1040.91 830.418,1126.37C827.589,1130.45 827.265,1135.77 829.574,1140.16C831.882,1144.56 836.445,1147.31 841.41,1147.3L841.41,1147.3Z" style="fill:white;fill-rule:nonzero;"/>
            <path d="M431.25,963.66C444.07,949.996 426.281,929.582 410.93,940.363C277.34,1034.35 135.61,1099.27 64.78,1128.96C60.589,1130.73 58.221,1135.2 59.12,1139.67C60.018,1144.12 63.932,1147.33 68.483,1147.34L156.256,1147.34C165.366,1147.32 174.354,1145.22 182.529,1141.2C292.429,1087.2 373.619,1025.14 431.249,963.657L431.25,963.66Z" style="fill:white;fill-rule:nonzero;"/>
            <path d="M486.07,897.98C491.89,901.625 499.508,900.39 503.882,895.097C511.343,886.187 517.964,876.609 523.663,866.48C525.675,862.515 524.628,857.687 521.155,854.91C517.683,852.137 512.741,852.184 509.319,855.02C502.03,861.723 493.921,868.778 485.436,875.434C481.917,878.113 479.882,882.312 479.96,886.739C480.038,891.164 482.221,895.285 485.835,897.841L486.07,897.98Z" style="fill:white;fill-rule:nonzero;"/>
        </g>
    </g>
</svg>
